build/img/icon-burger-big.svg

<svg width="77" height="69" viewBox="0 0 77 69" fill="none" xmlns="http://www.w3.org/2000/svg">
<path d="M71.9 46H4.3C1.9 46 0 48 0 50.3V53.8C0 56.1 1.9 58 4.3 58H5.3V59C5.3 64.5 9.8 68.9 15.2 68.9H61C66.5 68.9 70.9 64.4 70.9 59V58H71.9C74.2 58 76.2 56.1 76.2 53.7V50.2C76.2 48 74.3 46 71.9 46ZM68 59C68 62.8 64.9 65.9 61.1 65.9H15.1C11.3 65.9 8.2 62.8 8.2 59V58H68V59ZM73.2 53.7C73.2 54.4 72.6 55 71.9 55H4.3C3.6 55 3 54.4 3 53.7V50.2C3 49.6 3.6 49 4.3 49H72C72.7 49 73.3 49.6 73.3 50.3V53.7H73.2Z" fill="#81B3D2"/>
<path d="M16.2 37.9L21.6 41.9L27.1 37.9L32.6 41.9L38.1 37.9L43.5 41.9L49 37.9L54.5 41.9L60 37.9L65.5 41.9L71.8 37.2L70.1 34.8L65.5 38.1L60 34.1L54.5 38.1L49 34.1L43.5 38.1L38.1 34.1L32.6 38.1L27.1 34.1L21.6 38.1L16.2 34.1L10.7 38.1L6.10005 34.8L4.30005 37.2L10.7 41.9L16.2 37.9Z" fill="#81B3D2"/>
<path d="M70.9 31.1C70.9 30.5 71 28.5 70.9 28.1C70.2 12.5 55.7999 0 38.0999 0C20.3999 0 5.89995 12.5 5.19995 28.1C5.19995 28.5 5.19995 30.5 5.19995 31.1H70.9ZM38.0999 3C54.0999 3 67.3 14.2 67.9 28.1H8.19995C8.89995 14.2 22.0999 3 38.0999 3Z" fill="#81B3D2"/>
<path d="M38.1 17C39.2045 17 40.1 16.1046 40.1 15C40.1 13.8954 39.2045 13 38.1 13C36.9954 13 36.1 13.8954 36.1 15C36.1 16.1046 36.9954 17 38.1 17Z" fill="#81B3D2"/>
<path d="M30.1 12.1C31.2045 12.1 32.1 11.2045 32.1 10.1C32.1 8.99541 31.2045 8.09998 30.1 8.09998C28.9954 8.09998 28.1 8.99541 28.1 10.1C28.1 11.2045 28.9954 12.1 30.1 12.1Z" fill="#81B3D2"/>
<path d="M46.1 12.1C47.2045 12.1 48.1 11.2045 48.1 10.1C48.1 8.99541 47.2045 8.09998 46.1 8.09998C44.9954 8.09998 44.1 8.99541 44.1 10.1C44.1 11.2045 44.9954 12.1 46.1 12.1Z" fill="#81B3D2"/>
</svg>

<svg width="77" height="69" fill="none" xmlns="http://www.w3.org/2000/svg"><path d="M71.9 46H4.3C1.9 46 0 48 0 50.3v3.5C0 56.1 1.9 58 4.3 58h1v1c0 5.5 4.5 9.9 9.9 9.9H61c5.5 0 9.9-4.5 9.9-9.9v-1h1c2.3 0 4.3-1.9 4.3-4.3v-3.5c0-2.2-1.9-4.2-4.3-4.2zM68 59c0 3.8-3.1 6.9-6.9 6.9h-46c-3.8 0-6.9-3.1-6.9-6.9v-1H68v1zm5.2-5.3c0 .7-.6 1.3-1.3 1.3H4.3c-.7 0-1.3-.6-1.3-1.3v-3.5c0-.6.6-1.2 1.3-1.2H72c.7 0 1.3.6 1.3 1.3v3.4h-.1zm-57-15.8l5.4 4 5.5-4 5.5 4 5.5-4 5.4 4 5.5-4 5.5 4 5.5-4 5.5 4 6.3-4.7-1.7-2.4-4.6 3.3-5.5-4-5.5 4-5.5-4-5.5 4-5.4-4-5.5 4-5.5-4-5.5 4-5.4-4-5.5 4-4.6-3.3-1.8 2.4 6.4 4.7 5.5-4zm54.7-6.8c0-.6.1-2.6 0-3C70.2 12.5 55.8 0 38.1 0 20.4 0 5.9 12.5 5.2 28.1v3h65.7zM38.1 3c16 0 29.2 11.2 29.8 25.1H8.2C8.9 14.2 22.1 3 38.1 3z" fill="#81B3D2"/><path d="M38.1 17a2 2 0 100-4 2 2 0 000 4zm-8-4.9a2 2 0 100-4 2 2 0 000 4zm16 0a2 2 0 100-4 2 2 0 000 4z" fill="#81B3D2"/></svg>
